X:1
T:Mille regretz
C:Tielman Susato
S:Susato1551
R:Pavane
M:4/2 %org: C|
L:1/2
K:Am
E4|A2A2|G3F/E/|DCD2|Cccc|B2A>B|c>BA2|^G2z2:|
|:c2BA|GAAA|GEF2|E2zB|c2A2|B2e2|dcBA|^G2z2:|
|:E2GG|Dddd|c2B2|AAAA|G2F2|EEGE|G2E>F|G2z2:|
